X:106
T:I Love Thee Once... (p)1652.PLFD.106
T:Blue Breeches. (p)1652.PLFD.106
T:I'll Love No More. (p)1652.PLFD.106
M:6/4
L:1/4
Q:3/4=90
S:Playford, Dancing Master,2nd Ed.,1652
O:England
N:
H:1652.
Z:Chris Partington.
K:C
D|D2AA2G|F>GAG2E|F2GA>Bc|dA2D2:|
|:c|cccc2c|c2de2e|f>efg>fg|ae2d3|
cccc2c|c>de/f/g2d|dA2A>GF|GA2D2:|
